swift.svg

<svg width="128px" height="128px" xmlns="http://www.w3.org/2000/svg" viewBox="0 0 40 36" version="1.1">
  <g id="swift-logo">
    <path d="m29.885 33.047c-4.667 2.696-11.084 2.973-17.54 0.206-5.2273-2.224-9.5646-6.117-12.345-10.565 1.3346 1.112 2.8916 2.002 4.5598 2.78 6.6672 3.125 13.333 2.911 18.024 0.008-0.003-0.003-0.005-0.005-0.007-0.008-6.673-5.116-12.345-11.789-16.571-17.238-0.8901-0.8898-1.5574-2.002-2.2247-3.0029 5.1159 4.671 13.235 10.565 16.126 12.234-6.116-6.451-11.566-14.458-11.344-14.236 9.676 9.787 18.685 15.348 18.685 15.348 0.298 0.168 0.528 0.308 0.713 0.433 0.195-0.496 0.366-1.011 0.51-1.545 1.557-5.672-0.222-12.123-4.115-17.461 9.008 5.4495 14.347 15.681 12.122 24.245-0.058 0.231-0.121 0.459-0.189 0.683 0.026 0.031 0.052 0.063 0.078 0.096 4.448 5.561 3.225 11.455 2.669 10.343-2.413-4.722-6.88-3.278-9.151-2.32z" />
  </g>
</svg>

<?xml version="1.0" encoding="UTF-8"?>
<svg width="40px" height="36px" viewBox="0 0 40 36" version="1.1" xmlns="http://www.w3.org/2000/svg" xmlns:xlink="http://www.w3.org/1999/xlink">
    <!-- Generator: Sketch 48.2 (47327) - http://www.bohemiancoding.com/sketch -->
    <title>Shape</title>
    <desc>Created with Sketch.</desc>
    <defs></defs>
    <g id="Page-1" stroke="none" stroke-width="1" fill="none" fill-rule="evenodd">
        <g id="swift" fill="#ABB3C1" fill-rule="nonzero">
            <path d="M29.885,33.047 C25.218,35.743 18.801,36.02 12.345,33.253 C7.1177,31.029 2.7804,27.136 0,22.688 C1.3346,23.8 2.8916,24.69 4.5598,25.468 C11.227,28.593 17.8928,28.379 22.5838,25.476 C22.5808,25.473 22.5788,25.471 22.5768,25.468 C15.9038,20.352 10.2318,13.679 6.0058,8.23 C5.1157,7.3402 4.4484,6.228 3.7811,5.2271 C8.897,9.8981 17.0161,15.7921 19.9071,17.4611 C13.7911,11.0101 8.3411,3.0031 8.5631,3.2251 C18.2391,13.0121 27.2481,18.5731 27.2481,18.5731 C27.5461,18.7411 27.7761,18.8811 27.9611,19.0061 C28.1561,18.5101 28.3271,17.9951 28.4711,17.4611 C30.0281,11.7891 28.2491,5.3381 24.3561,0.0001 C33.3641,5.4496 38.7031,15.6811 36.4781,24.2451 C36.4201,24.4761 36.3571,24.7041 36.2891,24.9281 C36.3151,24.9591 36.3411,24.9911 36.3671,25.0241 C40.8151,30.5851 39.5921,36.4791 39.0361,35.3671 C36.6231,30.6451 32.1561,32.0891 29.8851,33.0471 L29.885,33.047 Z" id="Shape"></path>
        </g>
    </g>
</svg>
